Papirus/64x64/mimetypes/application-x-font-ttf.svg

<?xml version="1.0" encoding="UTF-8" standalone="no"?>
<svg
   id="_图层_1"
   data-name="图层_1"
   version="1.1"
   viewBox="0 0 128 128"
   width="64"
   height="64"
   sodipodi:docname="application-x-font-ttf.svg"
   xml:space="preserve"
   inkscape:version="1.4 (e7c3feb100, 2024-10-09)"
   xmlns:inkscape="http://www.inkscape.org/namespaces/inkscape"
   xmlns:sodipodi="http://sodipodi.sourceforge.net/DTD/sodipodi-0.dtd"
   xmlns="http://www.w3.org/2000/svg"
   xmlns:svg="http://www.w3.org/2000/svg"><sodipodi:namedview
     id="namedview3"
     pagecolor="#505050"
     bordercolor="#eeeeee"
     borderopacity="1"
     inkscape:showpageshadow="0"
     inkscape:pageopacity="0"
     inkscape:pagecheckerboard="0"
     inkscape:deskcolor="#505050"
     inkscape:zoom="10.6875"
     inkscape:cx="32"
     inkscape:cy="32"
     inkscape:window-width="1920"
     inkscape:window-height="939"
     inkscape:window-x="0"
     inkscape:window-y="34"
     inkscape:window-maximized="1"
     inkscape:current-layer="_图层_1" /><!-- Generator: Adobe Illustrator 29.0.1, SVG Export Plug-In . SVG Version: 2.1.0 Build 192)  --><defs
     id="defs1"><style
       id="style1">
      .st0 {
        fill: #0071e9;
      }

      .st1 {
        fill: #fff;
      }

      .st2 {
        fill: #5aaaff;
        isolation: isolate;
        opacity: .5;
      }
    </style></defs><path
     class="st0"
     d="M18.2,0c-5.6,0-10.2,4.6-10.2,10.2v107.6c0,5.6,4.6,10.2,10.2,10.2h91.6c5.6,0,10.2-4.6,10.2-10.2V40.6L82.2,0H18.2Z"
     id="path1"
     style="fill:#a7a7a7;fill-opacity:1" /><path
     class="st2"
     d="m 82.761404,2.619883 v 29.2 c 0,3.2 2.145542,11.6 11.89801,11.6 h 24.966316 z"
     id="path2"
     style="fill:#868686;fill-opacity:1;stroke-width:0.987546" /><path
     class="st2"
     d="M 82.116964,0.02339171 V 29.223392 c 0,3.2 2.2,11.6 12.2,11.6 h 25.599996 z"
     id="path2-3"
     style="opacity:1;isolation:isolate;fill:#c0c0c0;fill-opacity:1" /><g
     id="g3"
     transform="matrix(2.5443913,0,0,2.2790602,-17.420522,-8.853083)"><path
       style="opacity:0.1"
       d="m 45,29.6 c -2.377,1.3 -7.268,1.571 -11.895,1.517 -3.631,0.021 -10.72,-0.733 -11.939,2.816 0.461,-0.634 8.903,-3.513 8.054,0.062 -0.999,2.912 -2.186,4.389 -3.715,7.025 -1.488,0.112 -3.546,0.177 -4.823,1.064 0.333,-0.205 3.164,-0.768 4.299,-0.149 -1.738,2.872 -4.129,6.196 -5.403,9.324 -0.351,1.074 -1.141,2.802 0.073,3.58 1.029,0.48 0.308,-0.21 0.725,-0.882 1.747,-3.755 4.751,-7.915 6.946,-11.402 1.282,0.533 2.525,1.521 3.923,1.675 1.903,0.226 5.182,-2.464 5.687,-4.313 -2.167,1.627 -5.907,1.119 -8.377,1.067 l 4.736,-7.273 c 0.525,0.162 1.452,0.205 2.985,0.222 3.573,0.102 8.141,-0.564 8.723,-4.333 z"
       id="path6" /><path
       style="fill:#4f4f4f"
       d="m 45,28.6 c -2.377,1.3 -7.268,1.571 -11.895,1.517 -3.631,0.021 -10.72,-0.733 -11.939,2.816 0.461,-0.634 8.903,-3.513 8.054,0.062 -0.999,2.912 -2.186,4.389 -3.715,7.025 -1.488,0.112 -3.546,0.177 -4.823,1.064 0.333,-0.205 3.164,-0.768 4.299,-0.149 -1.738,2.872 -4.129,6.196 -5.403,9.324 -0.351,1.074 -1.141,2.802 0.073,3.58 1.029,0.48 0.308,-0.21 0.725,-0.882 1.747,-3.755 4.751,-7.915 6.946,-11.402 1.282,0.533 2.525,1.521 3.923,1.675 1.903,0.226 5.182,-2.464 5.687,-4.313 -2.167,1.627 -5.907,1.119 -8.377,1.067 l 4.736,-7.273 c 0.525,0.162 1.452,0.205 2.985,0.222 3.573,0.102 8.141,-0.564 8.723,-4.333 z"
       id="path7" /></g></svg>

<svg xmlns="http://www.w3.org/2000/svg" width="64" height="64" version="1">
 <path style="opacity:0.2" d="M 12.75,5 C 11.2265,5 10,6.2488 10,7.8 v 50.4 c 0,1.5512 1.2265,2.8 2.75,2.8 h 38.5 C 52.7735,61 54,59.7512 54,58.2 V 21 L 40,19 38,5 Z"/>
 <path style="fill:#a7a7a7" d="M 12.75,4 C 11.2265,4 10,5.2488 10,6.8 v 50.4 c 0,1.5512 1.2265,2.8 2.75,2.8 h 38.5 C 52.7735,60 54,58.7512 54,57.2 V 20 L 40,18 38,4 Z"/>
 <path style="opacity:0.2" d="M 38,5 V 18.333333 C 38,19.806134 39.193906,21 40.666666,21 H 54 Z"/>
 <path style="fill:#c0c0c0" d="M 38,4 V 17.333333 C 38,18.806133 39.193906,20 40.666666,20 H 54 Z"/>
 <path style="opacity:0.2;fill:#ffffff" d="M 12.75 4 C 11.2265 4 10 5.2495812 10 6.8007812 L 10 7.8007812 C 10 6.2495813 11.2265 5 12.75 5 L 38 5 L 38 4 L 12.75 4 z"/>
 <path style="opacity:0.1" d="M 45,29.6 C 42.623,30.9 37.732,31.171 33.105,31.117 29.474,31.138 22.385,30.384 21.166,33.933 21.627,33.299 30.069,30.42 29.22,33.995 28.221,36.907 27.034,38.384 25.505,41.02 24.017,41.132 21.959,41.197 20.682,42.084 21.015,41.879 23.846,41.316 24.981,41.935 23.243,44.807 20.852,48.131 19.578,51.259 19.227,52.333 18.437,54.061 19.651,54.839 20.68,55.319 19.959,54.629 20.376,53.957 22.123,50.202 25.127,46.042 27.322,42.555 28.604,43.088 29.847,44.076 31.245,44.23 33.148,44.456 36.427,41.766 36.932,39.917 34.765,41.544 31.025,41.036 28.555,40.984 L 33.291,33.711 C 33.816,33.873 34.743,33.916 36.276,33.933 39.849,34.035 44.417,33.369 44.999,29.6 Z"/>
 <path style="fill:#4f4f4f" d="M 45,28.6 C 42.623,29.9 37.732,30.171 33.105,30.117 29.474,30.138 22.385,29.384 21.166,32.933 21.627,32.299 30.069,29.42 29.22,32.995 28.221,35.907 27.034,37.384 25.505,40.02 24.017,40.132 21.959,40.197 20.682,41.084 21.015,40.879 23.846,40.316 24.981,40.935 23.243,43.807 20.852,47.131 19.578,50.259 19.227,51.333 18.437,53.061 19.651,53.839 20.68,54.319 19.959,53.629 20.376,52.957 22.123,49.202 25.127,45.042 27.322,41.555 28.604,42.088 29.847,43.076 31.245,43.23 33.148,43.456 36.427,40.766 36.932,38.917 34.765,40.544 31.025,40.036 28.555,39.984 L 33.291,32.711 C 33.816,32.873 34.743,32.916 36.276,32.933 39.849,33.035 44.417,32.369 44.999,28.6 Z"/>
</svg>
